icons/creative-commons-by-fill.svg

<svg xmlns="http://www.w3.org/2000/svg" width="24" height="24" fill="none"><g clip-path="url(#a)"><g><path fill="#121212" d="M12 2C17.523 2 22 6.477 22 12C22 17.523 17.523 22 12 22C6.477 22 2 17.523 2 12C2 6.477 6.477 2 12 2ZM14 10H10C9.75507 10 9.51866 10.09 9.33563 10.2527C9.15259 10.4155 9.03566 10.6397 9.007 10.883L9 11V15H10.5V19H13.5V15H15V11C15 10.7551 14.91 10.5187 14.7473 10.3356C14.5845 10.1526 14.3603 10.0357 14.117 10.007L14 10ZM12 5C11.4696 5 10.9609 5.21071 10.5858 5.58579C10.2107 5.96086 10 6.46957 10 7C10 7.53043 10.2107 8.03914 10.5858 8.41421C10.9609 8.78929 11.4696 9 12 9C12.5304 9 13.0391 8.78929 13.4142 8.41421C13.7893 8.03914 14 7.53043 14 7C14 6.46957 13.7893 5.96086 13.4142 5.58579C13.0391 5.21071 12.5304 5 12 5Z"/></g></g><defs><clipPath id="a"><rect width="24" height="24" fill="white"/></clipPath></defs></svg>

<svg width="24" height="24" fill="none" xmlns="http://www.w3.org/2000/svg"><g clip-path="url(#a)"><path d="M12 2c5.523 0 10 4.477 10 10s-4.477 10-10 10S2 17.523 2 12 6.477 2 12 2Zm2 8h-4a1 1 0 0 0-.993.883L9 11v4h1.5v4h3v-4H15v-4a1 1 0 0 0-.883-.993L14 10Zm-2-5a2 2 0 1 0 0 4 2 2 0 0 0 0-4Z" /></g><defs><clipPath id="a"><path fill="#fff" d="M0 0h24v24H0z"/></clipPath></defs></svg>
